svg/timezone.svg

<?xml version="1.0" encoding="UTF-8"?>
<svg xmlns="http://www.w3.org/2000/svg" xmlns:xlink="http://www.w3.org/1999/xlink" width="37.333" height="32" viewBox="0 0 37.333 32">
<path fill="none" stroke-width="3.556" stroke-linecap="round" stroke-linejoin="round" stroke="rgb(64.313725%, 64.313725%, 64.313725%)" stroke-opacity="1" stroke-miterlimit="4" d="M 13.332031 30.222656 L 3.648438 25.378906 C 3.046875 25.078125 2.664062 24.460938 2.667969 23.789062 L 2.667969 4.652344 C 2.667969 3.332031 4.058594 2.472656 5.238281 3.0625 L 13.332031 7.109375 M 13.332031 30.222656 L 24 24.890625 M 13.332031 30.222656 L 13.332031 7.105469 M 24 24.886719 L 32.09375 28.9375 C 32.644531 29.210938 33.300781 29.179688 33.824219 28.851562 C 34.347656 28.527344 34.667969 27.957031 34.667969 27.339844 L 34.667969 8.210938 C 34.667969 7.539062 34.285156 6.921875 33.683594 6.621094 L 24 1.777344 M 24 24.890625 L 24 1.777344 M 24 1.777344 L 13.332031 7.109375 "/>
</svg>

<svg role="img" viewBox="0 0 37.333 32" height="32" width="37.333" xmlns="http://www.w3.org/2000/svg"><path d="m13.332 30.223-9.684-4.844a1.77 1.77 0 0 1-.98-1.59V4.652c0-1.32 1.39-2.18 2.57-1.59l8.094 4.047m0 23.114L24 24.89m-10.668 5.332V7.105M24 24.887l8.094 4.05c.55.274 1.207.243 1.73-.085.524-.325.844-.895.844-1.512V8.21c0-.67-.383-1.288-.984-1.589L24 1.777m0 23.114V1.777m0 0L13.332 7.11" fill="none" stroke="rgb(64.313725%, 64.313725%, 64.313725%)" stroke-linecap="round" stroke-linejoin="round" stroke-width="3.556"/></svg>
